svgs/regular/house-chimney-user.svg

<svg xmlns="http://www.w3.org/2000/svg" viewBox="0 0 576 512"><!--! Font Awesome Pro 6.5.1 by @fontawesome - https://fontawesome.com License - https://fontawesome.com/license (Commercial License) Copyright 2023 Fonticons, Inc. --><path d="M272.5 5.7c9-7.6 22.1-7.6 31.1 0L464 141.9V56c0-13.3 10.7-24 24-24s24 10.7 24 24V182.6l55.5 47.1c10.1 8.6 11.3 23.7 2.8 33.8s-23.7 11.3-33.8 2.8L512 245.5V432c0 44.2-35.8 80-80 80H144c-44.2 0-80-35.8-80-80V245.5L39.5 266.3c-10.1 8.6-25.3 7.3-33.8-2.8s-7.3-25.3 2.8-33.8l264-224zM288 55.5L112 204.8V432c0 17.7 14.3 32 32 32H432c17.7 0 32-14.3 32-32V204.8L288 55.5zM288 160a64 64 0 1 1 0 128 64 64 0 1 1 0-128zM176 400c0-44.2 35.8-80 80-80h64c44.2 0 80 35.8 80 80c0 8.8-7.2 16-16 16H192c-8.8 0-16-7.2-16-16z"/></svg>

<svg xmlns="http://www.w3.org/2000/svg" viewBox="0 0 576 512"><!--! Font Awesome Pro 6.1.1 by @fontawesome - https://fontawesome.com License - https://fontawesome.com/license (Commercial License) Copyright 2022 Fonticons, Inc. --><path d="M224 224C224 188.7 252.7 160 288 160C323.3 160 352 188.7 352 224C352 259.3 323.3 288 288 288C252.7 288 224 259.3 224 224zM176 400C176 355.8 211.8 320 256 320H320C364.2 320 400 355.8 400 400C400 408.8 392.8 416 384 416H192C183.2 416 176 408.8 176 400zM464 141.9V56C464 42.75 474.7 31.1 488 31.1C501.3 31.1 512 42.75 512 56V182.6L567.5 229.7C577.6 238.3 578.9 253.4 570.3 263.5C561.7 273.6 546.6 274.9 536.5 266.3L512 245.5V432C512 476.2 476.2 512 432 512H144C99.82 512 64 476.2 64 432V245.5L39.53 266.3C29.42 274.9 14.28 273.6 5.7 263.5C-2.876 253.4-1.634 238.3 8.473 229.7L272.5 5.7C281.4-1.9 294.6-1.9 303.5 5.7L464 141.9zM144 464H432C449.7 464 464 449.7 464 432V204.8L288 55.47L112 204.8V432C112 449.7 126.3 464 144 464z"/></svg>
